images/ok.svg

<svg width="31" height="30" viewBox="0 0 31 30" fill="none" xmlns="http://www.w3.org/2000/svg">
<path d="M30.8187 25.6099C30.8187 28.0346 28.8644 30 26.4538 30H5.20278C2.79209 30 0.837891 28.0346 0.837891 25.6099V4.39008C0.837891 1.96548 2.79209 0 5.20278 0H26.4538C28.8645 0 30.8187 1.96548 30.8187 4.39008V25.6099Z" fill="#FAAB62"/>
<path d="M30.6655 25.5011C30.6655 27.9007 28.7314 29.846 26.3455 29.846H5.31267C2.92678 29.846 0.992676 27.9007 0.992676 25.5011V4.49911C0.992676 2.09944 2.92686 0.154175 5.31267 0.154175H26.3455C28.7314 0.154175 30.6655 2.09952 30.6655 4.49911V25.5011Z" fill="#F7931E"/>
<path d="M15.8121 4.4837C12.8408 4.4837 10.4321 6.90636 10.4321 9.89477C10.4321 12.8833 12.8408 15.3061 15.8121 15.3061C18.7835 15.3061 21.1922 12.8833 21.1922 9.89477C21.1922 6.90636 18.7835 4.4837 15.8121 4.4837ZM15.8121 12.1317C14.5839 12.1317 13.5882 11.1302 13.5882 9.89485C13.5882 8.65951 14.5839 7.65803 15.8121 7.65803C17.0404 7.65803 18.0361 8.65951 18.0361 9.89485C18.0361 11.1302 17.0404 12.1317 15.8121 12.1317Z" fill="white"/>
<path d="M17.7112 19.6118C19.8651 19.1705 21.1558 18.1446 21.224 18.0896C21.8543 17.5812 21.9555 16.6552 21.4501 16.0212C20.9447 15.3873 20.0241 15.2855 19.3937 15.7938C19.3804 15.8047 18.0038 16.8668 15.7388 16.8683C13.4738 16.8668 12.0681 15.8047 12.0548 15.7938C11.4244 15.2855 10.5038 15.3873 9.99844 16.0212C9.49299 16.6552 9.59423 17.5812 10.2245 18.0896C10.2937 18.1454 11.6377 19.198 13.8519 19.6289L10.766 22.8725C10.2052 23.4575 10.222 24.3889 10.8036 24.9529C11.0875 25.2282 11.4533 25.365 11.8189 25.365C12.2022 25.365 12.585 25.2144 12.8721 24.915L15.7389 21.8435L18.8952 24.9349C19.4671 25.5092 20.3932 25.5082 20.964 24.9333C21.5348 24.3582 21.5341 23.4267 20.9623 22.8526L17.7112 19.6118Z" fill="white"/>
<path d="M15.7391 16.8685C15.7345 16.8685 15.7436 16.8686 15.7391 16.8687C15.7346 16.8686 15.7437 16.8685 15.7391 16.8685Z" fill="white"/>
</svg>

<svg width="31" height="30" fill="none" xmlns="http://www.w3.org/2000/svg"><path d="M30.819 25.61c0 2.425-1.955 4.39-4.365 4.39H5.203c-2.41 0-4.365-1.965-4.365-4.39V4.39C.838 1.965 2.792 0 5.203 0h21.25c2.412 0 4.366 1.965 4.366 4.39v21.22z" fill="#FAAB62"/><path d="M30.666 25.501c0 2.4-1.935 4.345-4.32 4.345H5.313c-2.386 0-4.32-1.945-4.32-4.345V4.5c0-2.4 1.934-4.345 4.32-4.345h21.032c2.386 0 4.32 1.946 4.32 4.345v21.002z" fill="#F7931E"/><path d="M15.812 4.484c-2.971 0-5.38 2.422-5.38 5.41 0 2.99 2.409 5.412 5.38 5.412 2.972 0 5.38-2.423 5.38-5.411 0-2.989-2.409-5.411-5.38-5.411zm0 7.648a2.23 2.23 0 01-2.224-2.237 2.23 2.23 0 012.224-2.237 2.23 2.23 0 012.224 2.237 2.23 2.23 0 01-2.224 2.237zM17.711 19.612c2.154-.441 3.445-1.467 3.513-1.522.63-.509.732-1.435.226-2.069a1.457 1.457 0 00-2.056-.227c-.014.01-1.39 1.073-3.655 1.074-2.265-.001-3.67-1.063-3.684-1.074a1.457 1.457 0 00-2.057.227 1.477 1.477 0 00.227 2.069c.069.055 1.413 1.108 3.627 1.539l-3.086 3.243a1.477 1.477 0 00.038 2.08 1.453 1.453 0 002.068-.037l2.867-3.072 3.156 3.092a1.457 1.457 0 002.069-.002c.57-.575.57-1.506-.002-2.08l-3.25-3.241zM15.74 16.869c-.005 0 .004 0 0 0-.005 0 .004 0 0 0z" fill="#fff"/></svg>
